storefront-child/assets/images/svg/remove-product.svg

<svg width="24" height="24" viewBox="0 0 24 24" fill="none" xmlns="http://www.w3.org/2000/svg">
<circle cx="12" cy="12" r="11.5" fill="#70A098" stroke="#70A098"/>
<path d="M12.5878 11.9909L15.9038 8.6838C15.9693 8.60749 16.0036 8.50932 15.9997 8.40892C15.9958 8.30852 15.9541 8.21328 15.8828 8.14223C15.8116 8.07118 15.7161 8.02956 15.6154 8.02568C15.5148 8.02181 15.4163 8.05596 15.3398 8.12131L12.0238 11.4284L8.70782 8.11732C8.6325 8.0422 8.53034 8 8.42382 8C8.3173 8 8.21514 8.0422 8.13982 8.11732C8.0645 8.19244 8.02218 8.29433 8.02218 8.40056C8.02218 8.5068 8.0645 8.60868 8.13982 8.6838L11.4598 11.9909L8.13982 15.2981C8.09794 15.3338 8.06394 15.3778 8.03993 15.4273C8.01592 15.4768 8.00243 15.5307 8.0003 15.5857C7.99817 15.6406 8.00745 15.6954 8.02756 15.7466C8.04767 15.7978 8.07818 15.8443 8.11716 15.8832C8.15614 15.922 8.20276 15.9525 8.25409 15.9725C8.30542 15.9926 8.36035 16.0018 8.41544 15.9997C8.47053 15.9976 8.52458 15.9841 8.57421 15.9602C8.62383 15.9362 8.66796 15.9023 8.70382 15.8606L12.0238 12.5534L15.3398 15.8606C15.4163 15.9259 15.5148 15.9601 15.6154 15.9562C15.7161 15.9523 15.8116 15.9107 15.8828 15.8396C15.9541 15.7686 15.9958 15.6734 15.9997 15.5729C16.0036 15.4725 15.9693 15.3744 15.9038 15.2981L12.5878 11.9909Z" fill="#1B2322"/>
</svg>

<?xml version="1.0" encoding="utf-8"?>
<!-- Generator: Adobe Illustrator 26.4.0, SVG Export Plug-In . SVG Version: 6.00 Build 0)  -->
<svg version="1.1" id="Calque_1" xmlns="http://www.w3.org/2000/svg" xmlns:xlink="http://www.w3.org/1999/xlink" x="0px" y="0px"
	 viewBox="0 0 24 24" style="enable-background:new 0 0 24 24;" xml:space="preserve">
<style type="text/css">
	.st0{fill:#302C2C;stroke:#302C2C;}
	.st1{fill:#F7EBE9;}
</style>
<circle class="st0" cx="12" cy="12" r="11.5"/>
<path class="st1" d="M12.6,12l3.3-3.3C16,8.6,16,8.5,16,8.4s0-0.2-0.1-0.3C15.8,8.1,15.7,8,15.6,8c-0.1,0-0.2,0-0.3,0.1L12,11.4
	L8.7,8.1C8.6,8,8.5,8,8.4,8C8.3,8,8.2,8,8.1,8.1S8,8.3,8,8.4c0,0.1,0,0.2,0.1,0.3l3.3,3.3l-3.3,3.3c0,0-0.1,0.1-0.1,0.1
	c0,0,0,0.1,0,0.2c0,0.1,0,0.1,0,0.2s0.1,0.1,0.1,0.1c0,0,0.1,0.1,0.1,0.1c0.1,0,0.1,0,0.2,0c0.1,0,0.1,0,0.2,0c0,0,0.1-0.1,0.1-0.1
	l3.3-3.3l3.3,3.3c0.1,0.1,0.2,0.1,0.3,0.1c0.1,0,0.2,0,0.3-0.1c0.1-0.1,0.1-0.2,0.1-0.3c0-0.1,0-0.2-0.1-0.3L12.6,12z"/>
</svg>
